X:1146
T:Here comes Tom Dukes a-riding
C:Clague Coll.
C:Traditional
O:Isle of Man
Z:Clague collection
B:Kiaull Vannin #146
M:6/8
L:1/4
Q:150
K:G
D/|GD/ GB/|d3/2 G/A/B/|cA/ BG/|A/F/E/ DD/|GD/ GB/|d3/2 G/A/B/|cA/ GF/|G3/2-G D/|
GG/ Gc/|d3/2 GG/|AA/ AB/|A/F/E/ DD/|GG/ Gc/|d3/2 G/A/B/|cA/ GF/|G3
